packages/core/src/svgs/croid.svg

<svg width="24" height="24" viewBox="0 0 24 24" fill="none" xmlns="http://www.w3.org/2000/svg">
<g clip-path="url(#clip0_31_8734)">
<path d="M0 0H24V24H0V0Z" fill="#091B33"/>
<path d="M6.0001 6.42871C5.88644 6.42871 5.77743 6.47386 5.69706 6.55424C5.61669 6.63461 5.57153 6.74362 5.57153 6.85728C5.57153 6.97095 5.61669 7.07996 5.69706 7.16033C5.77743 7.2407 5.88644 7.28585 6.0001 7.28585H9.42868V16.7144H6.0001C5.88644 16.7144 5.77743 16.7596 5.69706 16.8399C5.61669 16.9203 5.57153 17.0293 5.57153 17.143C5.57153 17.2567 5.61669 17.3657 5.69706 17.446C5.77743 17.5264 5.88644 17.5716 6.0001 17.5716H9.85725C9.97091 17.5716 10.0799 17.5264 10.1603 17.446C10.2407 17.3657 10.2858 17.2567 10.2858 17.143V6.85728C10.2858 6.74362 10.2407 6.63461 10.1603 6.55424C10.0799 6.47386 9.97091 6.42871 9.85725 6.42871H6.0001ZM12.0001 6.42871C11.8864 6.42871 11.7774 6.47386 11.6971 6.55424C11.6167 6.63461 11.5715 6.74362 11.5715 6.85728C11.5715 6.97095 11.6167 7.07996 11.6971 7.16033C11.7774 7.2407 11.8864 7.28585 12.0001 7.28585H13.7144C14.5801 7.28585 15.7715 7.63728 16.7401 8.413C17.2813 8.83829 17.7157 9.38402 18.0088 10.0068C18.302 10.6295 18.4457 11.3121 18.4287 12.0001C18.4287 12.3301 18.3944 12.7073 18.313 13.1016C18.2701 13.2773 18.3387 13.4659 18.4844 13.573C18.7287 13.7444 19.0715 13.633 19.1358 13.3416C19.243 12.8573 19.2858 12.3987 19.2858 12.0001C19.2858 10.0544 18.4115 8.653 17.2758 7.74443C16.263 6.93082 15.0129 6.46898 13.7144 6.42871H12.0001ZM16.9201 16.153C17.083 16.3416 17.0572 16.6287 16.843 16.7616C15.8979 17.3226 14.8129 17.6035 13.7144 17.5716H12.0001C11.8864 17.5716 11.7774 17.5264 11.6971 17.446C11.6167 17.3657 11.5715 17.2567 11.5715 17.143C11.5715 17.0293 11.6167 16.9203 11.6971 16.8399C11.7774 16.7596 11.8864 16.7144 12.0001 16.7144H13.7144C14.8201 16.7144 15.6687 16.4659 16.3287 16.0716C16.4215 16.0148 16.5311 15.9919 16.6389 16.0067C16.7467 16.0216 16.8461 16.0733 16.9201 16.153ZM6.0001 8.143C5.88644 8.143 5.77743 8.18815 5.69706 8.26852C5.61669 8.34889 5.57153 8.4579 5.57153 8.57157C5.57153 8.68523 5.61669 8.79424 5.69706 8.87461C5.77743 8.95499 5.88644 9.00014 6.0001 9.00014H7.71439V10.2859C7.71439 10.3995 7.75954 10.5085 7.83992 10.5889C7.92029 10.6693 8.0293 10.7144 8.14296 10.7144C8.25663 10.7144 8.36564 10.6693 8.44601 10.5889C8.52638 10.5085 8.57153 10.3995 8.57153 10.2859V8.57157C8.57153 8.4579 8.52638 8.34889 8.44601 8.26852C8.36564 8.18815 8.25663 8.143 8.14296 8.143H6.0001ZM11.5715 8.57157C11.5715 8.4579 11.6167 8.34889 11.6971 8.26852C11.7774 8.18815 11.8864 8.143 12.0001 8.143H13.7144C14.143 8.143 14.7172 8.22871 15.2915 8.46014C15.5144 8.55442 15.5915 8.82014 15.4715 9.03014C15.3558 9.23157 15.103 9.30443 14.8844 9.223C14.4558 9.06443 14.0315 9.00014 13.7144 9.00014H12.0001C11.8864 9.00014 11.7774 8.95499 11.6971 8.87461C11.6167 8.79424 11.5715 8.68523 11.5715 8.57157ZM17.5458 11.4859C17.534 11.3885 17.4861 11.2992 17.4114 11.2357C17.3368 11.1721 17.2409 11.1391 17.143 11.143C16.873 11.143 16.6715 11.3959 16.6972 11.6659C16.7058 11.773 16.7101 11.8801 16.7101 12.0001C16.7101 13.2301 16.2044 13.9587 15.6044 14.3959C15.0484 14.7806 14.3904 14.9909 13.7144 15.0001H12.0001C11.8864 15.0001 11.7774 15.0453 11.6971 15.1257C11.6167 15.206 11.5715 15.315 11.5715 15.4287C11.5715 15.5424 11.6167 15.6514 11.6971 15.7318C11.7774 15.8121 11.8864 15.8573 12.0001 15.8573H13.7144C14.3572 15.8573 15.3044 15.6687 16.1058 15.0901C16.933 14.4987 17.5715 13.513 17.5715 12.0001C17.5715 11.8201 17.563 11.6487 17.5458 11.4859ZM6.0001 10.2859C6.11377 10.2859 6.22278 10.331 6.30315 10.4114C6.38352 10.4918 6.42868 10.6008 6.42868 10.7144V13.7144C6.42868 13.8281 6.38352 13.9371 6.30315 14.0175C6.22278 14.0978 6.11377 14.143 6.0001 14.143C5.88644 14.143 5.77743 14.0978 5.69706 14.0175C5.61669 13.9371 5.57153 13.8281 5.57153 13.7144V10.7144C5.57153 10.6008 5.61669 10.4918 5.69706 10.4114C5.77743 10.331 5.88644 10.2859 6.0001 10.2859ZM12.0001 10.2859C11.8864 10.2859 11.7774 10.331 11.6971 10.4114C11.6167 10.4918 11.5715 10.6008 11.5715 10.7144C11.5715 10.8281 11.6167 10.9371 11.6971 11.0175C11.7774 11.0978 11.8864 11.143 12.0001 11.143H13.7144C13.8387 11.143 14.0487 11.1773 14.233 11.2716C14.413 11.3573 14.533 11.4859 14.5844 11.6744C14.5961 11.7309 14.619 11.7845 14.6519 11.8319C14.6847 11.8793 14.7268 11.9195 14.7756 11.9503C14.8244 11.981 14.8789 12.0016 14.9359 12.0108C14.9928 12.02 15.051 12.0176 15.107 12.0037C15.163 11.9899 15.2156 11.9648 15.2617 11.9302C15.3078 11.8955 15.3464 11.8519 15.3753 11.8019C15.4041 11.752 15.4226 11.6967 15.4295 11.6395C15.4365 11.5822 15.4318 11.5241 15.4158 11.4687C15.3621 11.2592 15.2627 11.0642 15.125 10.8975C14.9872 10.7308 14.8143 10.5966 14.6187 10.5044C14.3374 10.3649 14.0284 10.2902 13.7144 10.2859H12.0001ZM11.5715 13.2859C11.5715 13.1722 11.6167 13.0632 11.6971 12.9828C11.7774 12.9024 11.8864 12.8573 12.0001 12.8573H13.2858C13.3995 12.8573 13.5085 12.9024 13.5889 12.9828C13.6692 13.0632 13.7144 13.1722 13.7144 13.2859C13.7144 13.3995 13.6692 13.5085 13.5889 13.5889C13.5085 13.6693 13.3995 13.7144 13.2858 13.7144H12.0001C11.8864 13.7144 11.7774 13.6693 11.6971 13.5889C11.6167 13.5085 11.5715 13.3995 11.5715 13.2859ZM8.57153 13.7144C8.57153 13.6008 8.52638 13.4918 8.44601 13.4114C8.36564 13.331 8.25663 13.2859 8.14296 13.2859C8.0293 13.2859 7.92029 13.331 7.83992 13.4114C7.75954 13.4918 7.71439 13.6008 7.71439 13.7144V15.0001H6.0001C5.88644 15.0001 5.77743 15.0453 5.69706 15.1257C5.61669 15.206 5.57153 15.315 5.57153 15.4287C5.57153 15.5424 5.61669 15.6514 5.69706 15.7318C5.77743 15.8121 5.88644 15.8573 6.0001 15.8573H8.14296C8.25663 15.8573 8.36564 15.8121 8.44601 15.7318C8.52638 15.6514 8.57153 15.5424 8.57153 15.4287V13.7144ZM8.57153 12.0001C8.57153 12.1138 8.52638 12.2228 8.44601 12.3032C8.36564 12.3836 8.25663 12.4287 8.14296 12.4287C8.0293 12.4287 7.92029 12.3836 7.83992 12.3032C7.75954 12.2228 7.71439 12.1138 7.71439 12.0001C7.71439 11.8865 7.75954 11.7775 7.83992 11.6971C7.92029 11.6167 8.0293 11.5716 8.14296 11.5716C8.25663 11.5716 8.36564 11.6167 8.44601 11.6971C8.52638 11.7775 8.57153 11.8865 8.57153 12.0001ZM16.2858 10.2859C16.3995 10.2859 16.5085 10.2407 16.5889 10.1603C16.6692 10.08 16.7144 9.97095 16.7144 9.85728C16.7144 9.74362 16.6692 9.63461 16.5889 9.55424C16.5085 9.47386 16.3995 9.42871 16.2858 9.42871C16.1722 9.42871 16.0631 9.47386 15.9828 9.55424C15.9024 9.63461 15.8572 9.74362 15.8572 9.85728C15.8572 9.97095 15.9024 10.08 15.9828 10.1603C16.0631 10.2407 16.1722 10.2859 16.2858 10.2859ZM15.0001 12.8573C15.0001 12.9709 14.955 13.08 14.8746 13.1603C14.7942 13.2407 14.6852 13.2859 14.5715 13.2859C14.4579 13.2859 14.3489 13.2407 14.2685 13.1603C14.1881 13.08 14.143 12.9709 14.143 12.8573C14.143 12.7436 14.1881 12.6346 14.2685 12.5542C14.3489 12.4739 14.4579 12.4287 14.5715 12.4287C14.6852 12.4287 14.7942 12.4739 14.8746 12.5542C14.955 12.6346 15.0001 12.7436 15.0001 12.8573ZM18.0001 15.8573C18.1138 15.8573 18.2228 15.8121 18.3032 15.7318C18.3835 15.6514 18.4287 15.5424 18.4287 15.4287C18.4287 15.315 18.3835 15.206 18.3032 15.1257C18.2228 15.0453 18.1138 15.0001 18.0001 15.0001C17.8864 15.0001 17.7774 15.0453 17.6971 15.1257C17.6167 15.206 17.5715 15.315 17.5715 15.4287C17.5715 15.5424 17.6167 15.6514 17.6971 15.7318C17.7774 15.8121 17.8864 15.8573 18.0001 15.8573Z" fill="url(#paint0_linear_31_8734)"/>
</g>
<defs>
<linearGradient id="paint0_linear_31_8734" x1="12.4287" y1="6.42871" x2="12.4287" y2="17.5716" gradientUnits="userSpaceOnUse">
<stop stop-color="#30C2C2"/>
<stop offset="0.49" stop-color="#73CD8D"/>
<stop offset="1" stop-color="#D6773D"/>
</linearGradient>
<clipPath id="clip0_31_8734">
<rect width="24" height="24" fill="white"/>
</clipPath>
</defs>
</svg>

<svg xmlns="http://www.w3.org/2000/svg" width="24" height="24" fill="none" viewBox="0 0 24 24"><g clip-path="url(#a)"><path fill="#091B33" d="M0 0h24v24H0z"/><path fill="url(#b)" d="M6 6.429a.429.429 0 1 0 0 .857H9.43v9.428H6a.429.429 0 0 0 0 .858h3.857a.43.43 0 0 0 .429-.429V6.857a.43.43 0 0 0-.429-.428zm6 0a.428.428 0 1 0 0 .857h1.714c.866 0 2.057.351 3.026 1.127A4.42 4.42 0 0 1 18.43 12c0 .33-.035.707-.116 1.102a.46.46 0 0 0 .171.471c.245.171.587.06.652-.231a6.3 6.3 0 0 0 .15-1.342c0-1.946-.875-3.347-2.01-4.256a6 6 0 0 0-3.562-1.315zm4.92 9.724c.163.189.137.476-.077.609a5.8 5.8 0 0 1-3.129.81H12a.428.428 0 1 1 0-.858h1.714c1.106 0 1.955-.248 2.615-.642a.47.47 0 0 1 .591.081M6 8.143A.429.429 0 1 0 6 9h1.714v1.286a.429.429 0 0 0 .858 0V8.572a.43.43 0 0 0-.429-.429zm5.572.429A.43.43 0 0 1 12 8.143h1.714c.429 0 1.003.086 1.577.317.223.094.3.36.18.57a.48.48 0 0 1-.587.193A3.5 3.5 0 0 0 13.714 9H12a.43.43 0 0 1-.428-.428m5.974 2.914a.39.39 0 0 0-.403-.343c-.27 0-.471.253-.446.523a4 4 0 0 1 .013.334c0 1.23-.506 1.959-1.106 2.396a3.4 3.4 0 0 1-1.89.604H12a.428.428 0 1 0 0 .857h1.714c.643 0 1.59-.188 2.392-.767.827-.591 1.465-1.577 1.465-3.09a5 5 0 0 0-.025-.514M6 10.286a.43.43 0 0 1 .429.428v3a.429.429 0 0 1-.857 0v-3A.43.43 0 0 1 6 10.286m6 0a.428.428 0 1 0 0 .857h1.714c.125 0 .335.034.519.129.18.085.3.214.351.402a.429.429 0 1 0 .832-.205 1.47 1.47 0 0 0-.797-.965 2.1 2.1 0 0 0-.905-.218zm-.428 3a.43.43 0 0 1 .428-.429h1.286a.429.429 0 1 1 0 .857H12a.43.43 0 0 1-.428-.428m-3 .428a.429.429 0 0 0-.858 0V15H6a.429.429 0 0 0 0 .857h2.143a.43.43 0 0 0 .429-.428zm0-1.714a.429.429 0 1 1-.858 0 .429.429 0 0 1 .858 0m7.714-1.714a.429.429 0 1 0 0-.857.429.429 0 0 0 0 .857M15 12.857a.428.428 0 1 1-.857 0 .428.428 0 0 1 .857 0m3 3A.429.429 0 1 0 18 15a.429.429 0 0 0 0 .858"/></g><defs><linearGradient id="b" x1="12.429" x2="12.429" y1="6.429" y2="17.572" gradientUnits="userSpaceOnUse"><stop stop-color="#30C2C2"/><stop offset=".49" stop-color="#73CD8D"/><stop offset="1" stop-color="#D6773D"/></linearGradient><clipPath id="a"><path fill="#fff" d="M0 0h24v24H0z"/></clipPath></defs></svg>
